X:83
T:Anglais efter Jöns Persson
T:(SvL Skåne nr. 83)
R:Anglais
Z:Patrik Månsson, 2009-01-12
O:Roalöv, Skåne
S:efter Jöns Persson
S:Svenska Låtar Skåne
B:Svenska Låtar Skåne
M:C
L:1/8
K:Eb
|: BcB=A B2 d2 | c2 c=B c2 e2 | d2 d^c d2 f2 | (ed)=cd e2 z2 :|
|: g2 g^f g2 b2 | (ag)=fe e2 d2 | f2 (f=e) f2 g2 | (ag)fg _e2 z2 :|

